!!!COM:	Pierre de la Rue
**kern	**kern
*part2	*part1
*staff2	*staff1
*clefGv2	*clefG2
*k[]	*k[]
*M3/1	*M3/1
=1-	=1-
1B	0r
2c	.
1B	.
.	1b
2G	.
=2	=2
2A	2cc
2B	1b
2E	.
2e	2g
2f	2a
[2e	2b
=3	=3
2e]	1e
2c	.
2d	1b
2e	.
4A	1cc
4B	.
4c	.
4d	.
=4	=4
4e	2.b
4f	.
4g	.
4e	4g
2f	2a
1e	2b
.	2.e
4d	.
4c	4f
=5	=5
2B	2g
2A	1a
2r	.
2e	2g
2.f	1a
4e	.
=6	=6
2d	1r
2c	.
2d	1b
2e	.
2A	2.cc
[2f	.
.	4b
=7	=7
2f]	2a
2e	2g
1d	2a
.	2b
1c	2e
.	[2cc
=8	=8
2r	2cc]
2.d	2b
.	1a
4e	.
4f	.
4d	.
4e	1g
4d	.
4c	.
4B	.
=9	=9
1A	2r
.	2.a
2r	.
.	4b
2A	4cc
.	4a
1d	4b
.	4a
.	4g
.	4f
=10	=10
2.c	0e
4B	.
2A	.
2G	.
1F	1a
=11	=11
2E	1g
1e	.
.	2r
4d	2a
4c	.
1B	2dd
.	2dd
=12	=12
2.A	2.cc
4B	4b
4c	2a
4d	.
1e	2g
.	1f
2d	.
=13	=13
1e	0e
2r	.
2A	.
2B	1r
[2A	.
=14	=14
2A]	2r
2F	2a
2G	2b
2A	1a
2D	.
2d	2f
=15	=15
2e	2g
1d	2a
.	1d
2B	.
2c	1a
2d	.
=16	=16
2G	1b
2.d	.
.	1a
4e	.
1f	.
.	2f
2e	2g
=17	=17
2d	1a
2c	.
1B	2.d
.	4e
2.A	4f
.	4e
.	[2a
4B	.
=18	=18
4c	4a]
4d	4b
4e	4cc
4c	4a
3%2d	2b
.	1a
3A	.
3c	.
3%2B	.
.	2g
=19	=19
0.A	0.a
==	==
*-	*-
